X:1
T:Hear Our Prayer, O Lord
T:Text: Para. Psalm 143:1 Tune: George Whelpton (1847-1930)
T:55 65 [HEAR OUR PRAYER, O LORD] www.hymnary.org/text/hear_our_prayer_o_lord_hear_our_pray
T:Hear Our Prayer, O Lord
T:This hymn is in the public domain.  You may freely use this score for personal and congregational worship.  If you reproduce the score, please credit Hymnary.org as the source. 
T:This hymn is in the public domain.  You may freely use this score for personal and congregational worship.  If you reproduce the score, please credit Hymnary.org as the source. 
Z:This hymn is in the public domain.  You may freely use this score for personal and congregational worship.  If you reproduce the score, please credit Hymnary.org as the source.
%%score 1 2
L:1/8
M:4/4
K:D
V:1 treble nm="Piano" snm="Pno."
V:2 bass nm="Piano" snm="Pno."
V:1
 [DF]3 [DF] [DF]2 [DF]2 | [CE]6 z2 | [CG]3 [DG] [EG]2 [CG]2 | [DF]6 [DF]2 | %4
w: Hear our prayer, O|Lord,|hear our prayer, O|Lord; in-|
 [DA]3 [DA] [DA]2 [DF]2 | [DG]6 [B,E]2 | [A,D]4 [A,C]2 [A,E]2 | [A,D]6 z2 || [B,D]8 | [A,D]8 |] %10
w: cline thine ear to|us, and|grant us thy|peace.|A-|men|
V:2
 [D,A,]3 [D,A,] [D,A,]2 [D,A,]2 | [A,,A,]6 z2 | [A,,A,]3 [B,,A,] [C,A,]2 [A,,A,]2 | %3
 [D,A,]6 [D,A,]2 | [F,A,]3 [F,A,] [F,A,]2 [D,=C]2 | [G,,B,]6 [G,,G,]2 | %6
 [A,,F,]4 [A,,E,]2 [A,,G,]2 | [D,F,]6 z2 || [G,,G,]8 | [D,F,]8 |] %10

